X:10
T:Charlie Mulvihill's
Z: id:dc-hornpipe-9
M:C|
L:1/8
K:A Major
(3EFG|AGAB cBAG|FcdB G2 (3EFG|AGAc efec|BAFA B2 (3Bcd|!
efed cBAG|FcdB G2 (3EFG|AGAf ecAc|BEGB A2:|!
(3cde|acgc fced|cAce a2ga|bBaB gBfB|(3efe ^df e2 (3efg|!
acgc fced|cAce afeA|dcdf ecAc|BEGB A2:|!

